**kern	**kern	**dynam
*part1	*part1	*part1
*staff2	*staff1	*
*I"Piano	*	*
*clefF4	*clefG2	*
*k[f#c#]	*k[f#c#]	*
=1	=1	=1
12D'L	12f#'L	.
12A'	12dd'	.
12d'J	12a'J	.
12f#'L	12ff#'L	.
12c#'	12cc#'	.
12A'J	12a'J	.
=	=	=
12D'L	12g'L	.
12A'	12cc#'	.
12c#'J	12a'J	.
12g'L	12gg'L	.
12c#'	12b'	.
12A'J	12a'J	.
=	=	=
12D'L	12f#'L	.
12A'	12dd'	.
12d'J	12a'J	.
12f#'L	12ff#'L	.
12c#'	12cc#'	.
12A'J	12a'J	.
=	=	=
8d	12r	pp
.	12f#'L	.
8r	.	.
.	12a'J	.
8c#	12r	.
.	12d'L	.
8r	.	.
.	12a'J	.
=	=	=
8F#	12r	.
.	12c#'L	<
8r	.	.
.	12f#'J 12a	.
8BB	12r	.
.	12d'L	.
8r	.	.
.	12f#'J 12b	.
=	=	=
8E	12r	[
.	12d'L	>
8r	.	.
.	12e'J 12g#X	.
8EE	12r	.
.	12G#X'L	.
8r	.	.
.	12d'J 12e	.
=	=	=
4AA	12r	]
.	12A'L	.
.	12c#'J 12e	.
4r	12aL	.
!	!LO:TX:b:i:t=dim.	!
.	12c#' 12e	.
.	12A'J	.
=	=	=
*-	*-	*-
!!!system-decoration: {(s1,s2)}
